X: 1342
T: Chinese Breakdown
C:Anon
B: australian traditional tunes wiki
M:4/4
L:1/8
Q: 1/4=100
K:D
V:1 
|:"D"d2A2B2A2|F2F4A2|d2A2B2A2|"A"E4E2A2|c4c3B|c2c4B2|A2AAB2A2|"D"F4F2A2|
"D"d2c2B2A2|F2F4E2|D2DDE2F2|"G"G4G2B2|"A"e4e2d2|c2c4B2|A2AAB2c2|"D"d4d2c2:|
"D"f2a2fed2|f2f4e2|f2ffa2g2|"A"e4e4|a4a3e|a2a4a2|a2g2f2e2|"D"f4f2e2|
"D"f2a2fed2|f2f4e2|d2d2c2=c2|"G"B4B4|"A"e4e2d2|c2c4B2|A2AAB2c2|"D"d4d4||
% abcbook-tune_id 6342d53a4a81e780d8e77e4d


% abcbook-boost 0
% abcbook-tablature 
% abcbook-transpose 
% abcbook-lastupdated 1665324360194
% abcbook-soundfonts 
% abcbook-repeats 1
% NFF Book 2016

